src/assets/img/no-image.svg

<?xml version="1.0" encoding="utf-8"?>
<!-- Generator: Adobe Illustrator 23.0.4, SVG Export Plug-In . SVG Version: 6.00 Build 0)  -->
<svg version="1.1" id="レイヤー_1" xmlns="http://www.w3.org/2000/svg" xmlns:xlink="http://www.w3.org/1999/xlink" x="0px"
	 y="0px" viewBox="0 0 297.5 419" style="enable-background:new 0 0 297.5 419;" xml:space="preserve">
<style type="text/css">
	.st0{fill:#DDDDDD;}
</style>
<title>no-image</title>
<path class="st0" d="M157,156.5c0,4.6-3.8,8.4-8.4,8.4s-8.4-3.8-8.4-8.4c0-4.6,3.8-8.4,8.4-8.4C153.3,148.2,157,151.9,157,156.5z"/>
<path class="st0" d="M155.5,173.2v16.1l-0.2-0.1l-3.2-2.4c-2-1.4-4.6-1.4-6.6,0l-20.9,15.6c-2.9,2.2-8,0.7-8-2.4v-77.5
	c0-1.9,2.1-3.4,4.7-3.4h9.4v37.7c0.1,9.9,8.1,17.9,18,17.9C151,174.5,153.3,174.1,155.5,173.2z"/>
<path class="st0" d="M180.9,122.4v77.5c0,3.1-5.1,4.6-8,2.4l-2-1.5l-4.3-3.2v-41c0-9.9-8.1-18-18-18c-2.3,0-4.6,0.5-6.8,1.3V119
	h34.5C178.8,119,180.9,120.5,180.9,122.4z"/>
<path class="st0" d="M108.8,242.4v-6.8c0-0.9,0.7-1.6,1.6-1.6c0.9,0,1.6,0.7,1.6,1.6c0,0,0,0,0,0v15.4c0,0.9-0.7,1.6-1.6,1.6
	c-0.9,0-1.6-0.7-1.6-1.6c0,0,0,0,0,0v-4.1l-7.5-7.4v11.5c0,0.9-0.7,1.6-1.6,1.6c-0.9,0-1.6-0.7-1.6-1.6c0,0,0,0,0,0v-15.2
	c0-1,0.8-1.9,1.9-1.9c0.4,0,0.8,0.1,1.1,0.4L108.8,242.4z"/>
<path class="st0" d="M126.1,246c0,3.7-2.1,6.8-5.8,6.8s-5.9-3.1-5.9-6.8s2.1-6.6,5.9-6.6S126.1,242.4,126.1,246z M122.9,246
	c0-2.4-0.7-3.8-2.7-3.8s-2.7,1.4-2.7,3.8s0.7,4,2.7,4S122.9,248.4,122.9,246L122.9,246z"/>
<path class="st0" d="M137.6,234.3c1.1,0,2,0.9,2,2c0,1.1-0.9,1.9-1.9,1.9c-1.1,0-1.9-0.9-1.9-1.9l0,0
	C135.8,235.2,136.6,234.3,137.6,234.3z M136,241.1c0-0.9,0.7-1.6,1.6-1.6c0.9,0,1.6,0.7,1.6,1.6c0,0,0,0,0,0v9.9
	c0,0.9-0.7,1.6-1.6,1.6c-0.9,0-1.6-0.7-1.6-1.6c0,0,0,0,0,0V241.1z"/>
<path class="st0" d="M157.8,251.1c-0.1,0.9-0.8,1.5-1.7,1.4c-0.8-0.1-1.4-0.7-1.4-1.4v-5.9c0-2-0.1-2.9-1.2-2.9s-1.4,0.9-1.6,2
	c0,0.4,0,0.6,0,0.9v5.8c0,0.9-0.7,1.6-1.5,1.6c-0.9,0-1.6-0.7-1.6-1.5v-5.4c0-1.9-0.1-3.5-1.2-3.5c-1.5,0-1.6,1.6-1.6,3.5v5.3
	c0,0.9-0.7,1.6-1.6,1.6c-0.9,0-1.6-0.7-1.6-1.6v-10.1c0-0.7,0.6-1.3,1.3-1.3c0.6,0,1,0.6,1.3,1.1l0.2,0.4c0.5-1.1,1.6-1.8,2.8-1.7
	c1.3,0,2,0.7,2.6,2.1c0.5-1.4,1.9-2.2,3.3-2.1c2.6,0,3.4,2.5,3.4,5.5L157.8,251.1z"/>
<path class="st0" d="M169.1,240.6c0.1-0.7,0.8-1.2,1.5-1.1c0.6,0.1,1.1,0.7,1.1,1.3v10.4c0,0.7-0.6,1.3-1.3,1.3
	c-0.6,0-1.2-0.5-1.3-1.1l-0.2-0.6c-0.7,1.3-2.1,2-3.6,1.9c-3.4,0-4.9-3.1-4.9-6.8s1.5-6.6,5.4-6.6c1.3,0.1,2.5,0.8,3.2,1.9
	L169.1,240.6z M168.6,246c0-2.3-0.7-3.8-2.6-3.8s-2.4,1.6-2.4,3.8s0.5,4,2.4,4S168.6,248.4,168.6,246L168.6,246z"/>
<path class="st0" d="M186.1,252.5c0,4.7-2.6,6.6-5.5,6.6c-1.4,0.1-2.8-0.3-4-1c-0.4-0.3-0.6-0.7-0.6-1.1c0-0.7,0.6-1.3,1.2-1.3
	c0,0,0,0,0,0c0.2,0,0.4,0,0.6,0.1c0.7,0.4,1.5,0.7,2.4,0.6c2.4,0,2.7-1.3,2.7-3.3v-1.8c-0.7,1-2,1.6-3.3,1.5c-3.4,0-4.9-3.1-4.9-6.8
	s1.6-6.6,5.1-6.6c1.4,0,2.7,0.6,3.5,1.8l0.1-0.5c0.1-0.6,0.7-1.1,1.3-1.1c0.7,0,1.3,0.6,1.3,1.3L186.1,252.5z M182.9,246
	c0-2.3-0.7-3.8-2.6-3.8s-2.4,1.6-2.4,3.8s0.5,4,2.4,4S182.9,248.4,182.9,246L182.9,246z"/>
<path class="st0" d="M194.4,252.8c-3.8,0-5.9-2-5.9-6.6c0-3.6,0.9-6.8,5.4-6.8c3.6,0,5.4,2.1,5.4,6.4c0,0.9-0.7,1.6-1.6,1.6
	c0,0,0,0,0,0h-6c-0.1,1.3,0.8,2.5,2.2,2.7c0.2,0,0.3,0,0.5,0c0.7,0,1.4-0.2,2-0.6c0.2-0.1,0.4-0.2,0.6-0.2c0.7,0,1.3,0.6,1.3,1.3
	c0,0,0,0,0,0c0,0.4-0.1,0.8-0.4,1C197,252.5,195.7,252.9,194.4,252.8z M191.8,244.8h4.5c0-1.8-0.8-2.5-2.3-2.5
	S191.8,243.1,191.8,244.8L191.8,244.8z"/>
<path class="st0" d="M293.5,1.3c1.7,0,3,1.3,3,3v410.3c0,1.7-1.3,3-3,3H4c-1.7,0-3-1.3-3-3V4.3c0-1.7,1.3-3,3-3H293.5 M293.5,0.3H4
	c-2.2,0-4,1.8-4,4v410.3c0,2.2,1.8,4,4,4h289.5c2.2,0,4-1.8,4-4V4.3C297.5,2.1,295.7,0.3,293.5,0.3z"/>
</svg>

<svg width="298" height="419" viewBox="0 0 298 419" fill="none" xmlns="http://www.w3.org/2000/svg">
<rect width="297.5" height="419" fill="#DDD"/>
<path d="M157 156.5C157 161.1 153.2 164.9 148.6 164.9C144 164.9 140.2 161.1 140.2 156.5C140.2 151.9 144 148.1 148.6 148.1C153.3 148.2 157 151.9 157 156.5Z" fill="white"/>
<path d="M155.5 173.2V189.3L155.3 189.2L152.1 186.8C150.1 185.4 147.5 185.4 145.5 186.8L124.6 202.4C121.7 204.6 116.6 203.1 116.6 200V122.5C116.6 120.6 118.7 119.1 121.3 119.1H130.7V156.8C130.8 166.7 138.8 174.7 148.7 174.7C151 174.5 153.3 174.1 155.5 173.2Z" fill="white"/>
<path d="M180.9 122.4V199.9C180.9 203 175.8 204.5 172.9 202.3L170.9 200.8L166.6 197.6V156.6C166.6 146.7 158.5 138.6 148.6 138.6C146.3 138.6 144 139.1 141.8 139.9V119H176.3C178.8 119 180.9 120.5 180.9 122.4Z" fill="white"/>
<path d="M108.8 242.4V235.6C108.8 234.7 109.5 234 110.4 234C111.3 234 112 234.7 112 235.6V251C112 251.9 111.3 252.6 110.4 252.6C109.5 252.6 108.8 251.9 108.8 251V246.9L101.3 239.5V251C101.3 251.9 100.6 252.6 99.7001 252.6C98.8001 252.6 98.1001 251.9 98.1001 251V235.8C98.1001 234.8 98.9001 233.9 100 233.9C100.4 233.9 100.8 234 101.1 234.3L108.8 242.4Z" fill="white"/>
<path d="M126.1 246C126.1 249.7 124 252.8 120.3 252.8C116.6 252.8 114.4 249.7 114.4 246C114.4 242.3 116.5 239.4 120.3 239.4C124.1 239.4 126.1 242.4 126.1 246ZM122.9 246C122.9 243.6 122.2 242.2 120.2 242.2C118.2 242.2 117.5 243.6 117.5 246C117.5 248.4 118.2 250 120.2 250C122.2 250 122.9 248.4 122.9 246Z" fill="white"/>
<path d="M137.6 234.3C138.7 234.3 139.6 235.2 139.6 236.3C139.6 237.4 138.7 238.2 137.7 238.2C136.6 238.2 135.8 237.3 135.8 236.3C135.8 235.2 136.6 234.3 137.6 234.3ZM136 241.1C136 240.2 136.7 239.5 137.6 239.5C138.5 239.5 139.2 240.2 139.2 241.1V251C139.2 251.9 138.5 252.6 137.6 252.6C136.7 252.6 136 251.9 136 251V241.1Z" fill="white"/>
<path d="M157.8 251.1C157.7 252 157 252.6 156.1 252.5C155.3 252.4 154.7 251.8 154.7 251.1V245.2C154.7 243.2 154.6 242.3 153.5 242.3C152.4 242.3 152.1 243.2 151.9 244.3C151.9 244.7 151.9 244.9 151.9 245.2V251C151.9 251.9 151.2 252.6 150.4 252.6C149.5 252.6 148.8 251.9 148.8 251.1V245.7C148.8 243.8 148.7 242.2 147.6 242.2C146.1 242.2 146 243.8 146 245.7V251C146 251.9 145.3 252.6 144.4 252.6C143.5 252.6 142.8 251.9 142.8 251V240.9C142.8 240.2 143.4 239.6 144.1 239.6C144.7 239.6 145.1 240.2 145.4 240.7L145.6 241.1C146.1 240 147.2 239.3 148.4 239.4C149.7 239.4 150.4 240.1 151 241.5C151.5 240.1 152.9 239.3 154.3 239.4C156.9 239.4 157.7 241.9 157.7 244.9L157.8 251.1Z" fill="white"/>
<path d="M169.1 240.6C169.2 239.9 169.9 239.4 170.6 239.5C171.2 239.6 171.7 240.2 171.7 240.8V251.2C171.7 251.9 171.1 252.5 170.4 252.5C169.8 252.5 169.2 252 169.1 251.4L168.9 250.8C168.2 252.1 166.8 252.8 165.3 252.7C161.9 252.7 160.4 249.6 160.4 245.9C160.4 242.2 161.9 239.3 165.8 239.3C167.1 239.4 168.3 240.1 169 241.2L169.1 240.6ZM168.6 246C168.6 243.7 167.9 242.2 166 242.2C164.1 242.2 163.6 243.8 163.6 246C163.6 248.2 164.1 250 166 250C167.9 250 168.6 248.4 168.6 246Z" fill="white"/>
<path d="M186.1 252.5C186.1 257.2 183.5 259.1 180.6 259.1C179.2 259.2 177.8 258.8 176.6 258.1C176.2 257.8 176 257.4 176 257C176 256.3 176.6 255.7 177.2 255.7C177.4 255.7 177.6 255.7 177.8 255.8C178.5 256.2 179.3 256.5 180.2 256.4C182.6 256.4 182.9 255.1 182.9 253.1V251.3C182.2 252.3 180.9 252.9 179.6 252.8C176.2 252.8 174.7 249.7 174.7 246C174.7 242.3 176.3 239.4 179.8 239.4C181.2 239.4 182.5 240 183.3 241.2L183.4 240.7C183.5 240.1 184.1 239.6 184.7 239.6C185.4 239.6 186 240.2 186 240.9L186.1 252.5ZM182.9 246C182.9 243.7 182.2 242.2 180.3 242.2C178.4 242.2 177.9 243.8 177.9 246C177.9 248.2 178.4 250 180.3 250C182.2 250 182.9 248.4 182.9 246Z" fill="white"/>
<path d="M194.4 252.8C190.6 252.8 188.5 250.8 188.5 246.2C188.5 242.6 189.4 239.4 193.9 239.4C197.5 239.4 199.3 241.5 199.3 245.8C199.3 246.7 198.6 247.4 197.7 247.4H191.7C191.6 248.7 192.5 249.9 193.9 250.1C194.1 250.1 194.2 250.1 194.4 250.1C195.1 250.1 195.8 249.9 196.4 249.5C196.6 249.4 196.8 249.3 197 249.3C197.7 249.3 198.3 249.9 198.3 250.6C198.3 251 198.2 251.4 197.9 251.6C197 252.5 195.7 252.9 194.4 252.8ZM191.8 244.8H196.3C196.3 243 195.5 242.3 194 242.3C192.5 242.3 191.8 243.1 191.8 244.8Z" fill="white"/>
</svg>
